ExpEYES17/UserManual/fr/rst/exp/schematics/RLsteadystate.svg

<?xml version="1.0" encoding="UTF-8" standalone="no"?>
<svg
   xmlns:dc="http://purl.org/dc/elements/1.1/"
   xmlns:cc="http://creativecommons.org/ns#"
   xmlns:rdf="http://www.w3.org/1999/02/22-rdf-syntax-ns#"
   xmlns:svg="http://www.w3.org/2000/svg"
   xmlns="http://www.w3.org/2000/svg"
   xmlns:sodipodi="http://sodipodi.sourceforge.net/DTD/sodipodi-0.dtd"
   xmlns:inkscape="http://www.inkscape.org/namespaces/inkscape"
   version="1.1"
   id="RLsteadystate"
   width="100%"
   height="100%"
   viewBox="-6 -6 566 294"
   sodipodi:docname="RLsteadystate.svg"
   inkscape:export-filename="/home/georgesk/developpement/expeyes/expeyes/ExpEYES17/UserManual/fr/rst/exp/schematics/RLsteadystate.png"
   inkscape:export-xdpi="51.245552"
   inkscape:export-ydpi="51.245552"
   inkscape:version="0.92.2 (5c3e80d, 2017-08-06)">
  <metadata
     id="metadata95">
    <rdf:RDF>
      <cc:Work
         rdf:about="">
        <dc:format>image/svg+xml</dc:format>
        <dc:type
           rdf:resource="http://purl.org/dc/dcmitype/StillImage" />
        <dc:title></dc:title>
      </cc:Work>
    </rdf:RDF>
  </metadata>
  <defs
     id="defs93" />
  <sodipodi:namedview
     pagecolor="#ffffff"
     bordercolor="#666666"
     borderopacity="1"
     objecttolerance="10"
     gridtolerance="10"
     guidetolerance="10"
     inkscape:pageopacity="0"
     inkscape:pageshadow="2"
     inkscape:window-width="1668"
     inkscape:window-height="1013"
     id="namedview91"
     showgrid="false"
     inkscape:zoom="1.8975265"
     inkscape:cx="283"
     inkscape:cy="147"
     inkscape:window-x="0"
     inkscape:window-y="0"
     inkscape:window-maximized="1"
     inkscape:current-layer="RLsteadystate" />
  <desc
     id="desc2">
XCircuit Version 3.7
File &quot;RLsteadystate.ps&quot; Page 1
</desc>
  <text
     font-size="40"
     id="text6"
     style="font-size:40px;font-family:Helvetica;fill:#000000;stroke:none"
     x="432"
     y="80">
    <tspan
       x="432"
       y="80"
       id="tspan4">R</tspan>
  </text>
  <circle
     style="fill:none;stroke:#000000;stroke-width:2;stroke-linecap:round;stroke-linejoin:bevel"
     r="16"
     id="ellipse10"
     cy="112"
     cx="352" />
  <path
     style="fill:none;stroke:#000000;stroke-width:2;stroke-linecap:round;stroke-linejoin:bevel"
     inkscape:connector-curvature="0"
     id="path12"
     d="m 320,224 v 48 h 64 v -48 z" />
  <path
     style="fill:none;stroke:#000000;stroke-width:2;stroke-linecap:round;stroke-linejoin:bevel"
     inkscape:connector-curvature="0"
     id="path14"
     d="m 448,224 v 48 h 96 v -48 z" />
  <path
     style="fill:none;stroke:#000000;stroke-width:2;stroke-linecap:round;stroke-linejoin:bevel"
     inkscape:connector-curvature="0"
     id="path16"
     d="M 0,0 V 288 H 560 V 0 Z" />
  <circle
     style="fill:none;stroke:#000000;stroke-width:2;stroke-linecap:round;stroke-linejoin:bevel"
     r="16"
     id="ellipse18"
     cy="112"
     cx="512" />
  <path
     style="fill:none;stroke:#000000;stroke-width:2;stroke-linecap:round;stroke-linejoin:bevel"
     inkscape:connector-curvature="0"
     id="path20"
     d="m 352,128 c 1,0 -48,64 0,96" />
  <path
     style="fill:none;stroke:#000000;stroke-width:2;stroke-linecap:round;stroke-linejoin:bevel"
     inkscape:connector-curvature="0"
     id="path22"
     d="M 496,112 H 468" />
  <path
     style="fill:none;stroke:#000000;stroke-width:2;stroke-linecap:round;stroke-linejoin:bevel"
     inkscape:connector-curvature="0"
     id="path24"
     d="m 368,112 h 28" />
  <path
     style="fill:none;stroke:#000000;stroke-width:2;stroke-linecap:round;stroke-linejoin:bevel"
     inkscape:connector-curvature="0"
     id="path26"
     d="m 396,112 6,14 12,-28 12,28 12,-28 12,28 12,-28 6,14" />
  <path
     style="fill:none;stroke:#000000;stroke-width:2;stroke-linecap:round;stroke-linejoin:bevel"
     inkscape:connector-curvature="0"
     id="path28"
     d="m 32,224 v 48 h 96 v -48 z" />
  <text
     font-size="40"
     id="text32"
     style="font-size:40px;font-family:Helvetica;fill:#000000;stroke:none"
     x="46.903439"
     y="262.57999">
    <tspan
       x="46.903439"
       y="262.57999"
       id="tspan30">WG</tspan>
  </text>
  <circle
     style="fill:none;stroke:#000000;stroke-width:2;stroke-linecap:round;stroke-linejoin:bevel"
     r="16"
     id="ellipse36"
     cy="112"
     cx="192" />
  <path
     style="fill:none;stroke:#000000;stroke-width:2;stroke-linecap:round;stroke-linejoin:bevel"
     inkscape:connector-curvature="0"
     id="path38"
     d="m 176,224 v 48 h 64 v -48 z" />
  <text
     font-size="40"
     id="text42"
     style="font-size:40px;font-family:Helvetica;fill:#000000;stroke:none"
     x="256"
     y="64">
    <tspan
       x="256"
       y="64"
       id="tspan40">L</tspan>
  </text>
  <path
     style="fill:none;stroke:#000000;stroke-width:2;stroke-linecap:round;stroke-linejoin:bevel"
     inkscape:connector-curvature="0"
     id="path46"
     d="m 512,128 c 1,0 -64,64 -16,96" />
  <path
     style="fill:none;stroke:#000000;stroke-width:2;stroke-linecap:round;stroke-linejoin:bevel"
     inkscape:connector-curvature="0"
     id="path48"
     d="M 80,224 C 112,176 48,144 176,112" />
  <path
     style="fill:none;stroke:#000000;stroke-width:2;stroke-linecap:round;stroke-linejoin:bevel"
     inkscape:connector-curvature="0"
     id="path50"
     d="m 208,224 c 1,0 -48,-64 -16,-96" />
  <path
     style="fill:none;stroke:#000000;stroke-width:2;stroke-linecap:round;stroke-linejoin:bevel"
     inkscape:connector-curvature="0"
     id="path52"
     d="m 254,112 c -4,20 -20,20 -24,0" />
  <path
     style="fill:none;stroke:#000000;stroke-width:2;stroke-linecap:round;stroke-linejoin:bevel"
     inkscape:connector-curvature="0"
     id="path54"
     d="m 254,112 c 4,-20 -8,-20 -4,0" />
  <path
     style="fill:none;stroke:#000000;stroke-width:2;stroke-linecap:round;stroke-linejoin:bevel"
     inkscape:connector-curvature="0"
     id="path56"
     d="m 314,112 c -4,20 -20,20 -24,0" />
  <path
     style="fill:none;stroke:#000000;stroke-width:2;stroke-linecap:round;stroke-linejoin:bevel"
     inkscape:connector-curvature="0"
     id="path58"
     d="m 294,112 c -4,20 -20,20 -24,0" />
  <path
     style="fill:none;stroke:#000000;stroke-width:2;stroke-linecap:round;stroke-linejoin:bevel"
     inkscape:connector-curvature="0"
     id="path60"
     d="m 274,112 c -4,20 -20,20 -24,0" />
  <path
     style="fill:none;stroke:#000000;stroke-width:2;stroke-linecap:round;stroke-linejoin:bevel"
     inkscape:connector-curvature="0"
     id="path62"
     d="m 294,112 c 4,-20 -8,-20 -4,0" />
  <path
     style="fill:none;stroke:#000000;stroke-width:2;stroke-linecap:round;stroke-linejoin:bevel"
     inkscape:connector-curvature="0"
     id="path64"
     d="m 274,112 c 4,-20 -8,-20 -4,0" />
  <path
     style="fill:none;stroke:#000000;stroke-width:2;stroke-linecap:round;stroke-linejoin:bevel"
     inkscape:connector-curvature="0"
     id="path66"
     d="M 230,112 H 208" />
  <path
     style="fill:none;stroke:#000000;stroke-width:2;stroke-linecap:round;stroke-linejoin:bevel"
     inkscape:connector-curvature="0"
     id="path68"
     d="m 314,112 h 22" />
  <text
     font-size="40"
     id="text72"
     style="font-size:40px;font-family:Helvetica;fill:#000000;stroke:none"
     x="187.36063"
     y="262.57999">
    <tspan
       x="187.36063"
       y="262.57999"
       id="tspan70">A1</tspan>
  </text>
  <text
     font-size="40"
     id="text78"
     style="font-size:40px;font-family:Helvetica;fill:#000000;stroke:none"
     x="328.08063"
     y="262.57999">
    <tspan
       x="328.08063"
       y="262.57999"
       id="tspan76">A2</tspan>
  </text>
  <text
     font-size="40"
     id="text84"
     style="font-size:40px;font-family:Helvetica;fill:#000000;stroke:none"
     x="451.78"
     y="262.57999">
    <tspan
       x="451.78"
       y="262.57999"
       id="tspan82">GND</tspan>
  </text>
</svg>

<svg xmlns="http://www.w3.org/2000/svg"
   xmlns:xlink="http://www.w3.org/1999/xlink"
   version="1.1"
   id="RLsteadystate" width="100%" height="100%"  viewBox="-6 -6 566 294">
<desc>
XCircuit Version 3.7
File "RLsteadystate.ps" Page 1
</desc>
<g stroke="black">
<g transform="matrix(   1    0   -0    1 432  80)" fill="#000000" >
<text stroke="none" font-family="Helvetica" font-size="40" ><tspan x="0" y="0">R</tspan>
</text></g>
<ellipse cx="352" cy="112" rx="16" ry="16" fill="none" stroke-width="2" stroke-linejoin="bevel" stroke-linecap="round" stroke="#000000" />
<path d="M320,224 L320,272 384,272 384,224 z" fill="none" stroke-width="2" stroke-linejoin="bevel" stroke-linecap="round" stroke="#000000" />
<path d="M448,224 L448,272 544,272 544,224 z" fill="none" stroke-width="2" stroke-linejoin="bevel" stroke-linecap="round" stroke="#000000" />
<path d="M0,0 L0,288 560,288 560,0 z" fill="none" stroke-width="2" stroke-linejoin="bevel" stroke-linecap="round" stroke="#000000" />
<ellipse cx="512" cy="112" rx="16" ry="16" fill="none" stroke-width="2" stroke-linejoin="bevel" stroke-linecap="round" stroke="#000000" />
<path d="M352,128 C353,128 304,192 352,224 " fill="none" stroke-width="2" stroke-linejoin="bevel" stroke-linecap="round" stroke="#000000" />
<path d="M496,112 L468,112 " fill="none" stroke-width="2" stroke-linejoin="bevel" stroke-linecap="round" stroke="#000000" />
<path d="M368,112 L396,112 " fill="none" stroke-width="2" stroke-linejoin="bevel" stroke-linecap="round" stroke="#000000" />
<path d="M396,112 L402,126 414,98 426,126 438,98 450,126 462,98 468,112 " fill="none" stroke-width="2" stroke-linejoin="bevel" stroke-linecap="round" stroke="#000000" />
<path d="M32,224 L32,272 128,272 128,224 z" fill="none" stroke-width="2" stroke-linejoin="bevel" stroke-linecap="round" stroke="#000000" />
<g transform="matrix(   1    0   -0    1  48 256)" fill="#000000" >
<text stroke="none" font-family="Helvetica" font-size="40" ><tspan x="0" y="0">WG</tspan>
</text></g>
<ellipse cx="192" cy="112" rx="16" ry="16" fill="none" stroke-width="2" stroke-linejoin="bevel" stroke-linecap="round" stroke="#000000" />
<path d="M176,224 L176,272 240,272 240,224 z" fill="none" stroke-width="2" stroke-linejoin="bevel" stroke-linecap="round" stroke="#000000" />
<g transform="matrix(   1    0   -0    1 256  64)" fill="#000000" >
<text stroke="none" font-family="Helvetica" font-size="40" ><tspan x="0" y="0">L</tspan>
</text></g>
<path d="M512,128 C513,128 448,192 496,224 " fill="none" stroke-width="2" stroke-linejoin="bevel" stroke-linecap="round" stroke="#000000" />
<path d="M80,224 C112,176 48,144 176,112 " fill="none" stroke-width="2" stroke-linejoin="bevel" stroke-linecap="round" stroke="#000000" />
<path d="M208,224 C209,224 160,160 192,128 " fill="none" stroke-width="2" stroke-linejoin="bevel" stroke-linecap="round" stroke="#000000" />
<path d="M254,112 C250,132 234,132 230,112 " fill="none" stroke-width="2" stroke-linejoin="bevel" stroke-linecap="round" stroke="#000000" />
<path d="M254,112 C258,92 246,92 250,112 " fill="none" stroke-width="2" stroke-linejoin="bevel" stroke-linecap="round" stroke="#000000" />
<path d="M314,112 C310,132 294,132 290,112 " fill="none" stroke-width="2" stroke-linejoin="bevel" stroke-linecap="round" stroke="#000000" />
<path d="M294,112 C290,132 274,132 270,112 " fill="none" stroke-width="2" stroke-linejoin="bevel" stroke-linecap="round" stroke="#000000" />
<path d="M274,112 C270,132 254,132 250,112 " fill="none" stroke-width="2" stroke-linejoin="bevel" stroke-linecap="round" stroke="#000000" />
<path d="M294,112 C298,92 286,92 290,112 " fill="none" stroke-width="2" stroke-linejoin="bevel" stroke-linecap="round" stroke="#000000" />
<path d="M274,112 C278,92 266,92 270,112 " fill="none" stroke-width="2" stroke-linejoin="bevel" stroke-linecap="round" stroke="#000000" />
<path d="M230,112 L208,112 " fill="none" stroke-width="2" stroke-linejoin="bevel" stroke-linecap="round" stroke="#000000" />
<path d="M314,112 L336,112 " fill="none" stroke-width="2" stroke-linejoin="bevel" stroke-linecap="round" stroke="#000000" />
<g transform="matrix(   1    0   -0    1 176 256)" fill="#000000" >
<text stroke="none" font-family="Helvetica" font-size="40" ><tspan x="0" y="0">A1</tspan>
</text></g>
<g transform="matrix(   1    0   -0    1 320 256)" fill="#000000" >
<text stroke="none" font-family="Helvetica" font-size="40" ><tspan x="0" y="0">A2</tspan>
</text></g>
<g transform="matrix(   1    0   -0    1 448 256)" fill="#000000" >
<text stroke="none" font-family="Helvetica" font-size="40" ><tspan x="0" y="0">GND</tspan>
</text></g>
</g>
</svg>
